X: 571
T: Oh Sheela My Love.
T: a .si.gi.e mo .gra.d.
R:jig
N:"Gaily." "Collected from Hartnett."
B:O'Neill's 571
Z:Transcribed by J.B. Walsh walsh@math.ubc.ca
M:6/8
L:1/8
%Q:90
K:Em
D|(DE)G A2A|(BAG) (GAB)|(c>d)c B2 A|AGE E2 G|
(DEG) A2 A|(BAG) (GAB)|c>de B2 A|AGE E2||
(c/d/)|(e>f)e d2c|(BGE) (GAB)|(Be).e d2 c|(BGB) c2 d|
e>fe {e}d2c|({c}BGE) (GAB)|c>dc B2 A|AGE E2||


